X:552
T:The Kings Ring
C:Jill Lawrence, 1974.  Chords by Colin Hume, 2022.
L:1/8
M:6/8
R:Jig
S:Colin Hume's website,  colinhume.com  - chords can also be printed below the stave.
Q:3/8=112
K:D
P:A
|: "Bm"d2B "A7"A3 | "D"F2A D3 | "A"CDE EFA | "E7"B3 "A"A3 |\
"Bm"d2B "A7"A3 | "D"F2A D3 | "Em"EFG "A7"F2E | "D"D6 :|
P:B
K:A
|: "A"EAB c2d | "A"edc "E7"B3 | "A"EAB c2e | "B7"f3 "E7"e3 |\
"A"EAB c2d | "A"edc "E7"B2f | "A"ecd "E7"B2G | "A"A6 :|

